src/actions/22/network-connect.svg

<svg xmlns="http://www.w3.org/2000/svg" viewBox="0 0 22 22">
  <defs id="defs3051">
    <style type="text/css" id="current-color-scheme">
      .ColorScheme-Text {
        color:#363636;
      }
      </style>
  </defs>
 <path 
     style="fill:currentColor;fill-opacity:1;stroke:none" 
     d="M 18.292969 3 L 14.792969 6.5 L 13.292969 5 L 11.292969 7 L 8 10.292969 L 6 12.292969 L 7.5 13.792969 L 3 18.292969 L 3.7070312 19 L 8.2070312 14.5 L 9.7070312 16 L 11.707031 14 L 15 10.707031 L 17 8.7070312 L 15.5 7.2070312 L 19 3.7070312 L 18.292969 3 z "
     class="ColorScheme-Text"
     />
</svg>

<?xml version="1.0" encoding="UTF-8"?>
<svg viewBox="0 0 22 22" xmlns="http://www.w3.org/2000/svg">
 <defs id="defs3051">
  <style id="current-color-scheme" type="text/css">.ColorScheme-Text {
        color:#363636;
      }</style>
 </defs>
 <path class="ColorScheme-Text" d="m18.293 3-3.5 3.5-1.5-1.5-7.293 7.293 1.5 1.5-4.5 4.5 0.70703 0.70703 4.5-4.5 1.5 1.5 7.293-7.293-1.5-1.5 3.5-3.5-0.70703-0.70703z" fill="currentColor"/>
</svg>
